style-guide/assets/xd-icons-sound-off-small.svg

<?xml version="1.0" encoding="UTF-8"?>
<svg width="18px" height="18px" viewBox="0 0 18 18" version="1.1" xmlns="http://www.w3.org/2000/svg" xmlns:xlink="http://www.w3.org/1999/xlink">
    <!-- Generator: Sketch 51.3 (57544) - http://www.bohemiancoding.com/sketch -->
    <title>sound off</title>
    <desc>Created with Sketch.</desc>
    <defs></defs>
    <g id="sound-off" stroke="none" stroke-width="1" fill="none" fill-rule="evenodd">
        <path d="M7,13.5866 L4.707,11.2936 C4.52,11.1066 4.265,11.0006 4,11.0006 L2,11.0006 L2,7.0006 L4,7.0006 C4.265,7.0006 4.52,6.8956 4.707,6.7076 L7,4.4146 L7,13.5866 Z M8.383,1.0766 C8.756,1.2316 9,1.5966 9,2.0006 L9,16.0006 C9,16.4046 8.756,16.7706 8.383,16.9246 C8.259,16.9756 8.129,17.0006 8,17.0006 C7.74,17.0006 7.484,16.8996 7.293,16.7076 L3.586,13.0006 L1,13.0006 C0.448,13.0006 0,12.5536 0,12.0006 L0,6.0006 C0,5.4476 0.448,5.0006 1,5.0006 L3.586,5.0006 L7.293,1.2936 C7.579,1.0066 8.008,0.9206 8.383,1.0766 Z M16.4141,9.0007 L17.7071,10.2937 C18.0981,10.6847 18.0981,11.3167 17.7071,11.7077 C17.5121,11.9027 17.2561,12.0007 17.0001,12.0007 C16.7441,12.0007 16.4881,11.9027 16.2931,11.7077 L15.0001,10.4147 L13.7071,11.7077 C13.3161,12.0987 12.6841,12.0987 12.2931,11.7077 C11.9021,11.3167 11.9021,10.6847 12.2931,10.2937 L13.5861,9.0007 L12.2931,7.7077 C11.9021,7.3167 11.9021,6.6847 12.2931,6.2937 C12.6841,5.9027 13.3161,5.9027 13.7071,6.2937 L15.0001,7.5867 L16.2931,6.2937 C16.6841,5.9027 17.3161,5.9027 17.7071,6.2937 C18.0981,6.6847 18.0981,7.3167 17.7071,7.7077 L16.4141,9.0007 Z" id="Fill-1" fill="#000000"></path>
    </g>
</svg>

<svg viewBox="0 0 18 18" xmlns="http://www.w3.org/2000/svg">
  <path d="M7 13.587l-2.293-2.293A1.002 1.002 0 0 0 4 11H2V7h2c.265 0 .52-.105.707-.293L7 4.415v9.172zm1.383-12.51c.373.155.617.52.617.924v14a1 1 0 0 1-1.707.707L3.586 13H1a1 1 0 0 1-1-1V6a1 1 0 0 1 1-1h2.586l3.707-3.707a.996.996 0 0 1 1.09-.217zM16.414 9l1.293 1.293a.999.999 0 1 1-1.414 1.414L15 10.415l-1.293 1.293a.999.999 0 1 1-1.414-1.414L13.586 9l-1.293-1.293a.999.999 0 1 1 1.414-1.414L15 7.587l1.293-1.293a.999.999 0 1 1 1.414 1.414L16.414 9z" fill="#000" fill-rule="evenodd"/>
</svg>
